learn-bizapps-pr/achievements/modern-analytics-intro.svg

<svg width="103" height="103" viewBox="0 0 103 103" fill="none" xmlns="http://www.w3.org/2000/svg">
<path d="M51.3911 98.786C25.5411 98.786 4.58105 77.836 4.58105 51.976C4.58105 26.116 25.5411 5.16602 51.3911 5.16602C77.2411 5.16602 98.201 26.126 98.201 51.976C98.201 77.826 77.2411 98.786 51.3911 98.786Z" fill="url(#paint0_linear_1223:1132)"/>
<path fill-rule="evenodd" clip-rule="evenodd" d="M97.2912 51.9759C97.2912 77.3259 76.7412 97.8759 51.3912 97.8759C26.0412 97.8759 5.49122 77.3259 5.49122 51.9759C5.49122 26.6259 26.0412 6.07594 51.3912 6.07594C76.7412 6.07594 97.2912 26.6259 97.2912 51.9759ZM51.3912 2.33594C78.8112 2.33594 101.031 24.5559 101.031 51.9759C101.031 79.3959 78.8012 101.616 51.3912 101.616C23.9712 101.616 1.75122 79.3859 1.75122 51.9759C1.75122 24.5559 23.9712 2.33594 51.3912 2.33594Z" fill="#F2F1F0"/>
<path fill-rule="evenodd" clip-rule="evenodd" d="M94.481 51.9765C94.481 75.7765 75.191 95.0665 51.391 95.0665C27.591 95.0665 8.30103 75.7765 8.30103 51.9765C8.30103 28.1765 27.591 8.88648 51.391 8.88648C75.191 8.88648 94.481 28.1765 94.481 51.9765ZM51.391 5.14648C77.251 5.14648 98.221 26.1165 98.221 51.9765C98.221 77.8365 77.251 98.8065 51.391 98.8065C25.531 98.8065 4.56104 77.8365 4.56104 51.9765C4.56104 26.1165 25.521 5.14648 51.391 5.14648Z" fill="url(#paint1_linear_1223:1132)"/>
<path opacity="0.15" d="M84.1811 81.0462L75.0711 71.9962C78.9111 66.9962 81.1911 60.7462 81.1911 53.9662C81.1911 37.5862 67.9011 24.3262 51.5411 24.3262C35.1811 24.3262 21.8911 37.5862 21.8911 53.9662C21.8911 70.3462 35.1511 83.6062 51.5311 83.6062C58.1011 83.6062 64.1511 81.4762 69.0911 77.8562L78.2511 86.9662C78.2511 86.9662 80.5711 87.8762 83.0011 85.2962C85.4311 82.7262 84.1811 81.0462 84.1811 81.0462ZM26.3111 54.0762C26.3111 40.1962 37.5711 28.9362 51.4511 28.9362C65.3311 28.9362 76.5911 40.1962 76.5911 54.0762C76.5911 67.9562 65.3011 79.2162 51.4211 79.2162C37.5411 79.2162 26.3111 67.9562 26.3111 54.0762Z" fill="#1F1D20"/>
<path d="M51.2511 79.4172C66.3837 79.4172 78.6511 67.1498 78.6511 52.0172C78.6511 36.8846 66.3837 24.6172 51.2511 24.6172C36.1185 24.6172 23.8511 36.8846 23.8511 52.0172C23.8511 67.1498 36.1185 79.4172 51.2511 79.4172Z" fill="white"/>
<path d="M86.1011 81.0577L75.0611 70.0177C78.9011 65.0177 81.1811 58.7677 81.1811 51.9877C81.1811 35.6077 67.8911 22.3477 51.5311 22.3477C35.1711 22.3477 21.8911 35.6077 21.8911 51.9877C21.8911 68.3677 35.1511 81.6277 51.5311 81.6277C58.1011 81.6277 64.1511 79.4977 69.0911 75.8777L80.1611 86.9777C80.1611 86.9777 81.2811 86.9877 83.7211 84.4177C86.1511 81.8377 86.1011 81.0577 86.1011 81.0577ZM26.3111 52.0877C26.3111 38.2077 37.5711 26.9477 51.4511 26.9477C65.3311 26.9477 76.5911 38.2077 76.5911 52.0877C76.5911 65.9677 65.3011 77.2277 51.4211 77.2277C37.5411 77.2277 26.3111 65.9677 26.3111 52.0877Z" fill="url(#paint2_linear_1223:1132)"/>
<path d="M41.9387 61.4961H37.592V67.173H41.9302V61.4961H41.9387Z" fill="#45CAF2"/>
<path d="M48.4206 57.7246H44.0146V67.172H48.4376V57.7246H48.4206Z" fill="#50E6FF"/>
<path d="M56.2751 51.5996H50.5981V67.1476H56.2751V51.5996Z" fill="#32B0E7"/>
<path d="M65.1717 45.2441H58.6475V67.1469H65.1717V45.2441Z" fill="#185A97"/>
<path d="M40.151 56.1563L39.363 55.7835L45.3365 44.955L53.3012 45.743L61.5624 39.2188L62.2063 39.8034L53.5977 46.7089L45.8195 45.9718L40.151 56.1563Z" fill="#16B2E6"/>
<path d="M38.8716 58.0298C39.9138 58.3094 40.9899 57.6908 41.2695 56.6487C41.5491 55.6065 40.9306 54.5304 39.8884 54.2508C38.8462 53.9712 37.7701 54.5897 37.4905 55.6319C37.2109 56.6826 37.8295 57.7502 38.8716 58.0298Z" fill="#005599"/>
<path d="M45.1924 47.6001C46.2346 47.8797 47.3107 47.2612 47.5903 46.219C47.8699 45.1768 47.2514 44.1007 46.2092 43.8211C45.167 43.5415 44.0909 44.16 43.8113 45.2022C43.5317 46.2444 44.1503 47.3205 45.1924 47.6001Z" fill="#005599"/>
<path d="M52.7588 48.0571C53.801 48.3367 54.8771 47.7182 55.1567 46.676C55.4363 45.6338 54.8178 44.5577 53.7756 44.2781C52.7334 43.9985 51.6574 44.6171 51.3777 45.6592C51.0981 46.7014 51.7167 47.769 52.7588 48.0571Z" fill="#005599"/>
<path d="M60.7404 41.3207C62.0537 42.0409 63.6212 41.1342 63.6636 39.6345C63.6806 38.9313 63.2823 38.2449 62.6723 37.906C61.3589 37.1858 59.7914 38.0924 59.7491 39.5922C59.7321 40.2954 60.1219 40.9817 60.7404 41.3207Z" fill="#005599"/>
<defs>
<linearGradient id="paint0_linear_1223:1132" x1="49.6212" y1="-12.8135" x2="53.6032" y2="132.957" gradientUnits="userSpaceOnUse">
<stop stop-color="#00ABDE"/>
<stop offset="1" stop-color="#007ED8"/>
</linearGradient>
<linearGradient id="paint1_linear_1223:1132" x1="2.82434" y1="-19.6485" x2="98.3523" y2="121.233" gradientUnits="userSpaceOnUse">
<stop stop-color="#007ED8"/>
<stop offset="0.7065" stop-color="#002D4C"/>
</linearGradient>
<linearGradient id="paint2_linear_1223:1132" x1="29.4777" y1="26.943" x2="75.2598" y2="78.9353" gradientUnits="userSpaceOnUse">
<stop stop-color="#007ED8"/>
<stop offset="0.7065" stop-color="#002D4C"/>
</linearGradient>
</defs>
</svg>

<svg width="103" height="103" fill="none" xmlns="http://www.w3.org/2000/svg"><path d="M51.391 98.786c-25.85 0-46.81-20.95-46.81-46.81 0-25.86 20.96-46.81 46.81-46.81s46.81 20.96 46.81 46.81-20.96 46.81-46.81 46.81Z" fill="url(#a)"/><path fill-rule="evenodd" clip-rule="evenodd" d="M97.291 51.976c0 25.35-20.55 45.9-45.9 45.9-25.35 0-45.9-20.55-45.9-45.9 0-25.35 20.55-45.9 45.9-45.9 25.35 0 45.9 20.55 45.9 45.9Zm-45.9-49.64c27.42 0 49.64 22.22 49.64 49.64s-22.23 49.64-49.64 49.64c-27.42 0-49.64-22.23-49.64-49.64 0-27.42 22.22-49.64 49.64-49.64Z" fill="#F2F1F0"/><path fill-rule="evenodd" clip-rule="evenodd" d="M94.481 51.977c0 23.8-19.29 43.09-43.09 43.09-23.8 0-43.09-19.29-43.09-43.09 0-23.8 19.29-43.09 43.09-43.09 23.8 0 43.09 19.29 43.09 43.09Zm-43.09-46.83c25.86 0 46.83 20.97 46.83 46.83s-20.97 46.83-46.83 46.83-46.83-20.97-46.83-46.83 20.96-46.83 46.83-46.83Z" fill="url(#b)"/><path opacity=".15" d="m84.181 81.046-9.11-9.05c3.84-5 6.12-11.25 6.12-18.03 0-16.38-13.29-29.64-29.65-29.64s-29.65 13.26-29.65 29.64c0 16.38 13.26 29.64 29.64 29.64 6.57 0 12.62-2.13 17.56-5.75l9.16 9.11s2.32.91 4.75-1.67c2.43-2.57 1.18-4.25 1.18-4.25Zm-57.87-26.97c0-13.88 11.26-25.14 25.14-25.14s25.14 11.26 25.14 25.14-11.29 25.14-25.17 25.14c-13.88 0-25.11-11.26-25.11-25.14Z" fill="#1F1D20"/><path d="M51.251 79.417c15.133 0 27.4-12.267 27.4-27.4 0-15.132-12.267-27.4-27.4-27.4s-27.4 12.268-27.4 27.4c0 15.133 12.267 27.4 27.4 27.4Z" fill="#fff"/><path d="m86.101 81.058-11.04-11.04c3.84-5 6.12-11.25 6.12-18.03 0-16.38-13.29-29.64-29.65-29.64s-29.64 13.26-29.64 29.64c0 16.38 13.26 29.64 29.64 29.64 6.57 0 12.62-2.13 17.56-5.75l11.07 11.1s1.12.01 3.56-2.56c2.43-2.58 2.38-3.36 2.38-3.36Zm-59.79-28.97c0-13.88 11.26-25.14 25.14-25.14s25.14 11.26 25.14 25.14-11.29 25.14-25.17 25.14c-13.88 0-25.11-11.26-25.11-25.14Z" fill="url(#c)"/><path d="M41.939 61.496h-4.347v5.677h4.338v-5.677h.009Z" fill="#45CAF2"/><path d="M48.42 57.725h-4.405v9.447h4.423v-9.447h-.017Z" fill="#50E6FF"/><path d="M56.275 51.6h-5.677v15.548h5.677V51.6Z" fill="#32B0E7"/><path d="M65.172 45.244h-6.524v21.903h6.524V45.244Z" fill="#185A97"/><path d="m40.151 56.156-.788-.373 5.974-10.828 7.964.788 8.261-6.524.644.584-8.608 6.906-7.779-.737-5.668 10.184Z" fill="#16B2E6"/><path d="M38.872 58.03a1.959 1.959 0 0 0 2.398-1.381 1.959 1.959 0 0 0-1.382-2.398 1.959 1.959 0 0 0-2.398 1.38 1.955 1.955 0 0 0 1.382 2.399ZM45.192 47.6a1.959 1.959 0 0 0 2.398-1.381 1.959 1.959 0 0 0-1.38-2.398 1.959 1.959 0 0 0-2.399 1.381 1.959 1.959 0 0 0 1.381 2.398ZM52.759 48.057a1.959 1.959 0 0 0 2.398-1.381 1.959 1.959 0 0 0-1.381-2.398 1.959 1.959 0 0 0-2.398 1.381 1.963 1.963 0 0 0 1.38 2.398ZM60.74 41.32a1.964 1.964 0 0 0 2.924-1.685 1.961 1.961 0 0 0-.992-1.729 1.964 1.964 0 0 0-2.923 1.686c-.017.703.373 1.39.991 1.729Z" fill="#059"/><defs><linearGradient id="a" x1="49.621" y1="-12.813" x2="53.603" y2="132.957" gradientUnits="userSpaceOnUse"><stop stop-color="#00ABDE"/><stop offset="1" stop-color="#007ED8"/></linearGradient><linearGradient id="b" x1="2.824" y1="-19.648" x2="98.352" y2="121.233" gradientUnits="userSpaceOnUse"><stop stop-color="#007ED8"/><stop offset=".707" stop-color="#002D4C"/></linearGradient><linearGradient id="c" x1="29.478" y1="26.943" x2="75.26" y2="78.935" gradientUnits="userSpaceOnUse"><stop stop-color="#007ED8"/><stop offset=".707" stop-color="#002D4C"/></linearGradient></defs></svg>
